!!!COM: Fanny (Mendelssohn) Hensel
!!!CNT: Deutsch
!!!TXO: Deutsch
!!!OTL: "Der Abendstern"
!!!LYR: Janos Maila?th
!!!OPR: 
!!!OPS: Op. 
!!!ONM: No. 
!!!ENC: Emily Thomas
!!!YOR: Hensel: 16 Songs Fanny Mendelssohn Hensel
!!!YOR: Alfred, 1995
!!!ODT: 1823/
!!NB: Vocal melody and text encoded.
**kern	**silbe
=0	=0
*clefG2	*
*k[b-e-a-]	*
*M6/8	*
*MM[Sanft und langsam]	*
4.r	.
8r	.
8r	.
{8e-	{Ich
=1	=1
4.g	schied
4.f	von
=2	=2
4.e-}	ihr;}
4r	.
{8e-	{es
=3	=3
4cc	stand
8cc	in
4b-	tie-
8b-	-fer
=4	=4
4b-	Bla2u-
8an}	-e}
4r	.
{8an	{der
=5	=5
4.b-	Lie-
4.cc	-be
=6	=6
4b-	Stern,
8a-}	|}
4r	.
{8b-	{in
=7	=7
4g	stil-
8b-	-ler
8ee-	gold-
8b-	|
8g	-ner
=8	=8
4f}	Pracht;}
8r	.
4r	.
{8b-	{sie
=9	=9
4g	sprach:
8r	.
8g	"Rein
8f	wie
8e-	der
=10	=10
4dd-}	Stern,}
{8dd-	{der
8dd-	jetzt
8cc	|
8bn	er-
=11	=11
4cc}	wacht,}
8r	.
{8cc	{ist
8b-	mei-
8a-	-ne
=12	=12
4.ee-	Lie-
4dd}	-be,}
8r	.
=13	=13
4r	.
8r	.
{8dd	{ist
8cc	mei-
8b-	-ne
=14	=14
[2.aa-	Lie-
=15	=15
8aa-]	|
8gg	|
8dd	|
8ff	|
8ee-	|
8bn}	-be,}
=16	=16
{8dd	{die
8cc	|
8g	ich
8b-	stets
8a-	|
8cc	dir
=17	=17
2.g	wei-
=18	=18
8f	|
16g	|
16f	|
16en	|
16f	|
4cc	|
8b-	|
=19	=19
4e-}	he.}
8r	.
4r	.
8r	.
=20	=20
2.r	.
=21	=21
4r	.
8r	.
4r	.
{8e-	{Wenn
=22	=22
4.g	die-
4.f	-ser
=23	=23
4.e-}	Stern}
4r	.
{8e-	{dir
=24	=24
4cc	fern
8cc	von
4b-	mir
8b-	er-
=25	=25
4b-	-schei-
8an}	-net,}
4r	.
{8an	{bringt
=26	=26
4.b-	dir
4.cc	sein
=27	=27
4b-	Leuch
8a-	|
8cc	|
8b-	|
8a-	-ten
=28	=28
4g	mei-
8b-	-nen
8ee-	Lie-
8b-	|
8g	-bes-
=29	=29
4f}	-gruss;}
8r	.
4r	.
{8b-	{in
=30	=30
4g	sei-
8g	-nen
8g	Strah-
8f	|
8e-	-len
=31	=31
4dd-	nah-
8dd-	-et
8dd-	mir
8cc	|
8bn	-dein
=32	=32
4cc}	Kuss,}
8r	.
{8cc	{wir
8b-	sind
8a-	ver-
=33	=33
4ee-	-ei-
8dd}	-net,}
4r	.
8r	.
=34	=34
4r	.
8r	.
{8dd	{so
8cc	sind
8b-	im
=35	=35
[2.aa-	Lich-
=36	=36
8aa-]	|
8gg	|
8dd	te
8ff	lie-
8ee-	|
8bn}	-bend,}
=37	=37
{8dd	{lie-
8cc	|
8g	-bend
8b-	wir
8a-	|
8cc	ver-
=38	=38
2.g	-ei-
=39	=39
8f	|
16g	|
16f	|
16en	|
16f	|
4cc	|
8b-	|
=40	=40
4e-}	-net.}
8r	.
4r	.
8r	.
=41	=41
2.r	.
=42	=42
4r	.
8r	.
4r	.
{8e-	{Uns
=43	=43
4.g	tren-
4.f	-net
=44	=44
4.e-}	jetzt}
4r	.
{8e-	{der
=45	=45
4cc	Er-
8dd	-de
4b-	fin-
8b-	-stres
=46	=46
4b-	Wal-
8an}	-ten,}
4r	.
{8a-	{im
=47	=47
4.b-	him-
4.cc	-mel
=48	=48
4b-	ist
8a-	fu2r
8cc	uns-
8b-	|
8a-	-re
=49	=49
4g	Lie-
8b-	|
8ee-	|
8b-	|
8g	-be
=50	=50
4f}	Raum,}
8r	.
4r	.
{8b-	{sie
=51	=51
4g	wird
8g}	sich,}
{8g	{en-
8f	|
8e-	-det
=52	=52
4dd-	die-
8dd-	-ses
8dd-	Le-
8cc	|
8bn	-bens
=53	=53
4cc}	Traum,}
8r	.
{8cc	in
8b-	je-
8a-	-nem
=54	=54
4ee-	Stern,
8dd}	|}
4r	.
8r	.
=55	=55
4r	.
8r	.
{8dd	{in
8cc	je-
8b-	-nem
=56	=56
[2.aa-	Stern
=57	=57
8aa-]	|
8gg	|
8dd	|
8ff	|
8ee-}	|}
{8bn	{be-
=58	=58
8dd	-se-
8cc	|
8g	-li-
8b-	-gend
8a-	|
8cc	ent-
=59	=59
2.g	-fal
=60	=60
8f	|
16g	|
16f	|
16en	|
16f	|
4c	|
8b-	|
=61	=61
4e-}	-ten."}
8r	.
4r	.
8r	.
==	==
*-	*-
